azure-icons/general-14-Tags.svg

<svg xmlns="http://www.w3.org/2000/svg" width="18" height="18"><defs><linearGradient id="a" x1="9" y1=".31" x2="9" y2="17.69" gradientUnits="userSpaceOnUse"><stop offset="0" stop-color="#c69aeb"/><stop offset=".09" stop-color="#bb90e4"/><stop offset=".49" stop-color="#926bc9"/><stop offset=".81" stop-color="#7854b8"/><stop offset="1" stop-color="#6f4bb2"/></linearGradient></defs><path d="M17.66 2.86L15.27.49a.58.58 0 00-.43-.18l-4.43.17a.52.52 0 00-.41.17L.34 10.27a.59.59 0 000 .83l6.44 6.41a.6.6 0 00.84 0l9.69-9.63a.58.58 0 00.17-.37l.35-4.19a.57.57 0 00-.17-.46zm-2.88 1.57a1.08 1.08 0 111.08-1.07 1.07 1.07 0 01-1.08 1.07z" fill="url(#a)"/><path d="M14.78 1.44a1.92 1.92 0 101.93 1.92 1.93 1.93 0 00-1.93-1.92zm1.06 2.13a1.08 1.08 0 11-1.27-1.27 1.08 1.08 0 011.27 1.27z" fill="#552f99"/></svg>

<svg id="ada44b30-b0e0-4b69-a3b4-281ce9b31578"  xmlns="http://www.w3.org/2000/svg"  width="18" height="18" viewBox="0 0 18 18">
  <defs>
    <linearGradient id="bf2c5efd-c986-4496-8dde-2626619483cc" x1="9" y1="0.31" x2="9" y2="17.69" gradientUnits="userSpaceOnUse">
      <stop offset="0" stop-color="#c69aeb"/>
      <stop offset="0.09" stop-color="#bb90e4"/>
      <stop offset="0.49" stop-color="#926bc9"/>
      <stop offset="0.81" stop-color="#7854b8"/>
      <stop offset="1" stop-color="#6f4bb2"/>
    </linearGradient>
  </defs>
  <title>Icon-general-14</title>
  <g>
    <path d="M17.66,2.86,15.27.49a.58.58,0,0,0-.43-.18L10.41.48A.52.52,0,0,0,10,.65L.34,10.27a.59.59,0,0,0,0,.83l6.44,6.41a.6.6,0,0,0,.84,0l9.69-9.63a.58.58,0,0,0,.17-.37l.35-4.19A.57.57,0,0,0,17.66,2.86ZM14.78,4.43a1.08,1.08,0,1,1,1.08-1.07A1.07,1.07,0,0,1,14.78,4.43Z" fill="url(#bf2c5efd-c986-4496-8dde-2626619483cc)"/>
    <path d="M14.78,1.44a1.92,1.92,0,1,0,1.93,1.92A1.93,1.93,0,0,0,14.78,1.44Zm1.06,2.13A1.08,1.08,0,1,1,14.57,2.3,1.08,1.08,0,0,1,15.84,3.57Z" fill="#552f99"/>
  </g>
</svg>
